X: 352
T: The Gathering of the Clans
M:C
L:1/8
B:O'Neill's 352
N:"Boldly."
N:"collected by F. O'Neill"
N:Ornament (~) is a mordent.
Z:Transcribed by Chris Falt, cfalt@trytel.com
K:G
GA | B3d cBAG | E>D ((3EFG) A2Bd | (ef/2g/2)dB ({d}c)BAG | (Bd)dd d2GA |
B3d cBAG | E>D ((3EFG) A2Bd | (ef/2g/2)dB ({d}c)BAG | EGG>A G2 ||
(~BA) | G>A Bc d2de | d>B AG g2ef | gf e/2f/2g/2a/2 gfed | Bdef g2((3def) |
gfed B2((3gfe) | dBAG A2Bd | (ef/2g/2) dB ({d}c)BAG | EGG>A G2 ||


